X: 739
T: Chanjia youjidui
L: 1/8
M: 2/4
K: F
F2D F [I:setbarnb 1]| 
G2G2 | 
c2G c | 
F DC2 | 
c f d c | 
B2B c | 
G F E C | 
F4 |]

@@@ Tune index: 9613
